X: 39
T: POLKAS: Cuas Set
T: Dainty Dish Before The King
C: C: Trad. / Trad. / Nicole Ní Dhubhshláine; S: Cormac Begley / Brendan Begley / Cuas
C: Set Leaders: Oliushka, Anton
Z: Anton Zille ed., Oleg Naumov arr.; NfldWhistler / Karen Joyce Lowe / Bregolas at The Session
N: https://thesession.org/members/26966/sets/104002
R: Polka
M: 2/4
L: 1/8
Q: 1/4=140
K: Edor
E>F|:"Em"GE BE|GE E>G|"D"FD AD|FD DE/F/|
"Em"GE BE|GE EG|"D"FD B,/C/D|"Em"E2 E>F|
"Em"GE BA|GE E>G|"D"FA AG|FD DF|
"Em"EG FA|"D"GB Ad|"G"Be "D/F#"df|1 "Em"e2 E>F:|2 "Em"e2 ef||
|:"Em"g2 fe|dB B>c|"D"dB AG|FD D2|
"Em"g2 fe|dB BA|"D"Be df|"Em"e2 ef|
"Em"g2 fe|dB B/A/B/c/|"D"d>B AG|FD DF|
"C"EG FA|"G/B"GB Ad|"G"Be "D/F#"df|1 "Em"e2 ef:|2 "Em"e2||
T: Neily Cleere's / Nelly Cleare's
K: Dmix
FG|:"A"A>A AB|cA FG|AB c/B/A|"G"G2 FG|
"A"A>A AB|ce f2|e"D"d AF|1 "G"G2 "(D)"FG :|2 "G"G2 fg||
|:"D"a>g fa|ge fg|a/b/a/g/ fa|"G"g2 fg|
"D"a>g fa|ge f2|"D (Em)"ed "D/F#"AF|1 "G"G2 fg:|2 "G"G2||
T: John Teaimí
K: Amaj
B/c/d|:"A"e2 ce|"D"f3 a|fe c/B/A|BA FA|
"A"ef/e/ ce|"D"fb af|"(E)"fe cB|1 "A"AB cd:|2 "A"AE FA||
|:"E"B2 BA/B/|"F#m"ce fa|"D"fe c/B/A|BA FA|
"E"B2 BA/B/|"F#m"ce fa|"D"fe cB|1 "A"AB c/B/A:|2 "A"AB cd||

